X: 1
T: String Quartet in F Major opus 77 no 2 mvt 4
C: Franz Joseph Haydn
%%abc-version 2.0
%%abcx-abcm2ps-target-version 5.9.1 (29 Sep 2008)
%%abc-creator hum2abc beta
%%abcx-conversion-date 2021/02/14 14:38:35
%%abc-copyright Copyright (c) 1994, 2000 Center for Computer Assisted Research in the Humanities
%%abc-edited-by Frances Bennion
%%abcx-initial-encoding-date 1997/04/15
%%gracespace 0 6 6
%%humdrum-veritas 1688067936
%%humdrum-veritas-data 313644401
%%linebreak <none>
%%barnumbers 0
L: 1/8
M: 3/4
N: Derived from op77n2-04.krn
Q: "Finale: Vivace assai"
%%staves [1 2 3 4]
V: 1
V: 2
V: 3 clef=alto
V: 4 clef=bass
K: F
[V:1][F4A,4] zc/B/ [I:setbarnb2] |
[V:2][F4A,4] zz |
[V:3]C4 zz |
[V:4]F,,4 zz |
[V:1]AG FE FG |
[V:2]z2 >C2 FB, |
[V:3]z2 >G,2 CC |
[V:4]z2 >B,2 A,E, |
[V:1]AF Bz2 d/c/ |
[V:2]A,C B,z3 |
[V:3]CA, Fz3 |
[V:4]F,_E, D,z3 |
[V:1]BA G^F GA |
[V:2]z2 >D2 GC |
[V:3]z2 >A,2 DD |
[V:4]z2 >C2 B,^F, |
[V:1]BG cz2 g/f/ |
[V:2]B,D Cz3 |
[V:3]DB, Gz3 |
[V:4]G,F, E,z3 |
[V:1]ed c=B cB |
[V:2]z2 >_A2 GA |
[V:3]z2 >F2 EF |
[V:4]z6 |
[V:1]c^c2 <d2 =c/B/ |
[V:2]GA2 <B2 A/G/ |
[V:3]E2 z2 G,2 |
[V:4]z3 C,/D,/ E,E,, |
[V:1]Aa/g/ f2 fe/d/ |
[V:2]F2 zC DE |
[V:3]A,2 zA, B,B, |
[V:4]F,,F,/G,/ A,F,, F,,F,, |
[V:1]d2 ca/g/ fe/d/ |
[V:2]FE FC DE |
[V:3]B,2 A,A, B,B, |
[V:4]F,,F,/G,/ A,F,, F,,F,, |
[V:1]d2 ca/g/ f/e/d/c/ |
[V:2]FE FC AA |
[V:3]B,2 A,F FF |
[V:4]F,,F,/G,/ A,F,, F,,F,, |
[V:1]c=B _Bz Az |
[V:2]Dz Ez Fz |
[V:3]G2 zG zF |
[V:4]G,,2 zC, zD, |
[V:1]Gz Bz Ez |
[V:2]Dz B,z G,z |
[V:3]zG zD zB, |
[V:4]zB,, zG,, zC, |
[V:1][A,2F2] >F2 GA |
[V:2]A,/B,/A,/B,/ A,F E_E |
[V:3]A,2 >A,2 B,C |
[V:4]F,,/E,,/F,,/E,,/ F,,F,, F,,F,, |
[V:1]B3 d/c/ B/A/G/F/ |
[V:2]D6 |
[V:3]B,6 |
[V:4]F,,/E,,/F,,/E,,/ F,,F,, F,,F,, |
[V:1][G,3E3] g/e/ g/e/g/e/ |
[V:2][B,E][B,2E2] [B,2E2] [B,E] |
[V:3]_DD2 D2 D |
[V:4]F,,z F,,z F,,z |
[V:1]c'>a fF GA |
[V:2][FA,][F2A,2] F E_E |
[V:3]CC2 A, B,C |
[V:4]F,,2 >F,,2 F,,F,, |
[V:1]B3 d/c/ B/A/G/F/ |
[V:2]D6 |
[V:3]B,6 |
[V:4]F,,/E,,/F,,/E,,/ F,,F,, F,,F,, |
[V:1][G,3E3] g/e/ g/e/g/e/ |
[V:2][B,E][E2B,2] [B,2E2] [B,E] |
[V:3]_DD2 D2 D |
[V:4]F,,z F,,z F,,z |
[V:1]c'>a fg/e/ g/e/g/e/ |
[V:2][FA,][F2A,2] c cc |
[V:3]C2 zB BB |
[V:4]F,,2 z4 |
[V:1]c'>a fa/A/ a/A/a/A/ |
[V:2]c2 z[Ag] [gA][gA] |
[V:3]A2 zE EE |
[V:4]z2 >^C2 CC |
[V:1]a>f df/d/ Ad/A/ |
[V:2]f2 z2 F3/F/ |
[V:3]F2 z2 D,3/D,/ |
[V:4]D2 zD,,/F,,/ A,,F,,/A,,/ |
[V:1]FA/F/ DF/D/ A,D |
[V:2]A,4 F3/F/ |
[V:3]D,4 D,3/D,/ |
[V:4]D,A,,/D,/ F,D,/F,/ A,F,, |
[V:1]C2 =B,2 G2 |
[V:2]F4 =B,2 |
[V:3]D,4 F,2 |
[V:4]G,,G, G,,G,, G,,G,, |
[V:1]F2 E2 c2- |
[V:2]D2 C2 G2 |
[V:3]=B,2 C2 E2 |
[V:4]G,,G, G,,G,, G,,G,, |
[V:1]c2 =B2 d2- |
[V:2]F4 _A2 |
[V:3]D4 F2 |
[V:4]G,,G, G,,G,, G,,G,, |
[V:1]d2 c2 f2- |
[V:2]G4 c2 |
[V:3]E4 A2 |
[V:4]G,,G, G,,G,, G,,G,, |
[V:1]f2 e2 a2- |
[V:2]d2 e2 _e2 |
[V:3]=B2 c2 c2 |
[V:4]G,,G, G,,G,, G,,G,, |
[V:1]a2 g2 [^f2A2] |
[V:2]d4 c2- |
[V:3]=B2 =B,D _EE |
[V:4]G,,G, G,,G,, G,,G,, |
[V:1]^f2 gf/g/ aa/f/ |
[V:2]c2 =BA/B/ cc/A/ |
[V:3]_E2 DC/D/ EE/C/ |
[V:4]G,,G, G,,G, G,,G, |
[V:1]gg/^f/ gf/g/ aa/f/ |
[V:2]=BB2 A/B/ cc/A/ |
[V:3]DD2 C/D/ _EE/C/ |
[V:4]G,,G, G,,G, G,,G, |
[V:1]gg/^f/ ga/g/ =fg/f/ |
[V:2]=BB2 z zD |
[V:3]DD2 z2 G- |
[V:4]G,,G, G,,z2 =B,, |
[V:1]ed c=B cg/f/ |
[V:2]EF GG GD |
[V:3]GF ED C=B, |
[V:4]C,D, E,F, E,z |
[V:1]ed c=B ca/g/ |
[V:2]EF GG Gz |
[V:3]CD EF EE |
[V:4]z2 z3 ^C |
[V:1]fe d^c de |
[V:2]z2 >E2 FG |
[V:3]FG AB AG |
[V:4]DE FG FE |
[V:1]f^f ga b=b |
[V:2]A_e d^f gd |
[V:3]FA Gc dG |
[V:4]DC =B,A, G,F, |
[V:1]c'/=b/c'/e'/ c'/b/c'/g/ c'/b/c'/e'/ |
[V:2]c4 c2- |
[V:3]G4 E2 |
[V:4]E,4 A,2 |
[V:1]d'/^c'/d'/f'/ d'/e'/=c'/d'/ =b/c'/d'/b/ |
[V:2]c2 =Bc df/d/ |
[V:3]A2 G2 F2 |
[V:4]F,2 G,2 G,,2 |
[V:1]c'/=b/c'/e'/ c'/b/c'/g/ c'/b/c'/e'/ |
[V:2]cG c2 E2 |
[V:3]E4 C2- |
[V:4]C,2 z2 A,,2 |
[V:1]d'/^c'/d'/f'/ d'/e'/=c'/d'/ =b/c'/d'/b/ |
[V:2]A2 G2 F2 |
[V:3]C2 =B,C DF/D/ |
[V:4]F,,2 G,,2 G,,2 |
[V:1]c'g2 e2 g/e/ |
[V:2][E6G,6] |
[V:3]C2 E2 C2 |
[V:4]C,C,, C,C,, C,C,, |
[V:1]ff/e/ dd/c/ =Bg |
[V:2][DG,][G,2F2] [G,2F2] [FG,] |
[V:3]=B,[D2B,2] [D2B,2] [DB,] |
[V:4]C,C,2 C,2 C, |
[V:1]gc'2 e'2 g' |
[V:2][G,6E6] |
[V:3]C2 E2 C2 |
[V:4]C,C,, C,C,, C,C,, |
[V:1]g'/f'/f'/e'/ e'/d'/f'/d'/ =bb |
[V:2][FG,][G,2F2] [F2G,2] [FG,] |
[V:3][D=B,][D2B,2] [D2B,2] [B,D] |
[V:4]C,C,2 C,2 C, |
[V:1]c'/e'/g'/e'/ g3 a/g/ |
[V:2][G,4E4] c2 |
[V:3][C6E6] |
[V:4]C,C,, C,C,, C,C,, |
[V:1]ff/e/ dd/c/ =Bd |
[V:2][=BD][B2D2] [B2D2] [BD] |
[V:3][FG,][F2G,2] [G,2F2] [G,F] |
[V:4]C,C,2 C,2 C, |
[V:1]c/d/e/f/ gg2 ^f/a/ |
[V:2][c2E2] zE2 ^D |
[V:3][G,/E/]D/E/F/G G2 ^F/A/|
[V:4]C,C CC CC |
[V:1]g^f/a/ gf/a/ gc' |
[V:2]E^D ED EG |
[V:3]G^F/A/ GF/A/ Gc |
[V:4]CC CC CC |
[V:1]dd2 ^c/e/ dc/e/ |
[V:2]AA2 B AB |
[V:3]FF2 G FG |
[V:4]F,2 z4 |
[V:1]df/g/ a/^g/a/g/ a/f/e/d/ |
[V:2]A2 z4 |
[V:3]F2 z4 |
[V:4]z6 |
[V:1]c/g/f/e/ d/c/=B/A/ G/F/E/D/ |
[V:2]c2 z2 [=B2D2] |
[V:3]E2 z2 F2 |
[V:4]G,,2 z2 G,,2 |
[V:1]C/G,/C/E/ G/^F/A/G/ =F/E/D/C/ |
[V:2][c2E2] z4 |
[V:3]E2 z4 |
[V:4]C,2 z4 |
[V:1]=B,/D/G/=B/ d/^c/e/d/ =c/B/A/G/ |
[V:2][D2=B2] z4 |
[V:3][F2G,2] z4 |
[V:4]F,2 z4 |
[V:1]c/=B/c/e/ g/^f/a/g/ =f/e/d/c/ |
[V:2][G2c2] z4 |
[V:3]C2 z4 |
[V:4]E,2 z4 |
[V:1]=B/A/a/f/ eg/e/ fd/B/ |
[V:2]cf/d/ ce/c/ =Bd/F/ |
[V:3]Fz Gz Dz |
[V:4]F,z G,z G,,z |
[V:1]c=B/d/ cd/f/ eB/d/ |
[V:2]EF/D/ E=B/d/ cD/F/ |
[V:3]ED/F/ ED/=B,/ CD/B,/ |
[V:4]C,G, C,G,, C,G, |
[V:1]c=B/d/ cd/f/ eB/d/ |
[V:2]EF/D/ E=B/d/ cD/F/ |
[V:3]ED/F/ ED/=B,/ CD/B,/ |
[V:4]C,G, C,G,, C,G, |
[V:1]ce/d/ cg/f/ eb/a/ |
[V:2]E2 z4 |
[V:3]E2 z4 |
[V:4]C,2 z4 |
[V:1]gg/f/ ee/d/ cc/B/ |
[V:2]z2 z2 zG |
[V:3]z2 z3 C |
[V:4]z2 z3 E, |
[V:1]AG FE FG |
[V:2]AE FC FB, |
[V:3]CB, A,G, CC |
[V:4]F,G, A,B, A,E, |
[V:1]AF Bz2 d/c/ |
[V:2]A,C B,z2 A |
[V:3]CA, FD/C/ B,D |
[V:4]F,_E, D,z2 ^F, |
[V:1]BA G^F GA |
[V:2]B^F GD GC |
[V:3]DC B,A, DD |
[V:4]G,A, B,C B,^F, |
[V:1]BG cz2 g/f/ |
[V:2]B,D Cz2 D |
[V:3]DB, Gz2 =B, |
[V:4]G,F, E,E,,/D,,/ C,,z |
[V:1]ed c=B cB |
[V:2]EF G_A GA |
[V:3]CD EF EF |
[V:4]z6 |
[V:1]c^c2 <d2 =c/B/ |
[V:2]GA2 <B2 A/G/ |
[V:3]E2 z2 G,2 |
[V:4]z3 C,/D,/ E,E,, |
[V:1]gg/f/ ee/d/ ^ca/g/ |
[V:2]^c4- cA |
[V:3]G4- GE |
[V:4]A,,4- A,,^C, |
[V:1]fe d^c de |
[V:2]dA/G/ FE D^C |
[V:3]D2 zA,/G,/ F,E, |
[V:4]D,2 z3 A,,/G,,/ |
[V:1]f2 zA/G/ F^c |
[V:2]DE Fz2 A/G/ |
[V:3]D,^C, D,E, F,G, |
[V:4]F,,E,, D,,^C,, D,,E,, |
[V:1]dd'/c'/ ba g^f |
[V:2]FA Bd/c/ BA |
[V:3]A,^F GF GD |
[V:4]F,,D,, G,,z2 D/C/ |
[V:1]ga bz2 ^f |
[V:2]G^F Gd/c/ Bc |
[V:3]Dd/c/ BA GD/C/ |
[V:4]B,A, G,^F, G,A, |
[V:1]gg/f/ ee/d/ ce |
[V:2]dB/A/ GC cz |
[V:3]B,2 zG/F/ EG |
[V:4]B,G, Cz2 C/B,/ |
[V:1]fg ab ad |
[V:2]zc/B/ AG Fd/c/ |
[V:3]CE F2 zF |
[V:4]A,G, F,E, F,B,/A,/ |
[V:1]ef ga g^c |
[V:2]BA GF GE |
[V:3]GA B2 zE |
[V:4]G,F, E,D, E,A,/G,/ |
[V:1]de f/g/e/f/ d/f/e/d/ |
[V:2]AG FA dD/F/ |
[V:3]FG AA2 ^G |
[V:4]F,^C, D,=C, B,,B, |
[V:1]^ca/c/ da/d/ ea/e/ |
[V:2]A^c zd ze |
[V:3]AA2 A2 A- |
[V:4]A,G, F,D, ^C,A,, |
[V:1]fa/^f/ gb/g/ ad'/a/ |
[V:2]z^f/a/ gd2 c |
[V:3]AD2 D2 D- |
[V:4]D,C B,G, ^F,D, |
[V:1]bd'/=b/ c'/b/c'/b/ c'/e/g/_b/ |
[V:2]B=B/d/ c/B/c/B/ cc- |
[V:3]DG,2 G,2 E |
[V:4]G,F, E,F, E,C, |
[V:1]a/f/e/f/ c/A/c/A/ F/c/f/a/ |
[V:2]cc2 c2 f |
[V:3]FA2 A2 A |
[V:4]F,,F, F,F, F,F, |
[V:1]bg2 e2 c |
[V:2]ee2 b/g/ b/g/b/g/ |
[V:3]G[B,2E2] [B,2E2] [EB,] |
[V:4]F,F,, F,,F,, F,,F,, |
[V:1]a/A/c/f/ a/b/g/a/ ^f/a/f/a/ |
[V:2]ac2 c >_ed/c/ |
[V:3][FA,]A2 A2 D |
[V:4]F,,F,2 _E, D,^F, |
[V:1]b/g/^f/g/ d/B/d/B/ G/B/A/G/ |
[V:2][BD][B2D2] [B2D2] [BD] |
[V:3]DG2 [D2B2] [BD] |
[V:4][G,G,,]G, G,G, G,G, |
[V:1]^F/A/c/d/ _e/c/A/^f/ c'/a/f/a/ |
[V:2][A^F][A2F2] [A2F2] _e/d/ |
[V:3][c_E]c2 c2 A |
[V:4][G,,G,]G, G,G, G,G, |
[V:1]b/a/a/g/ g/f/f/_e/ eb/d'/ |
[V:2]dd2 d/_e/ e_E |
[V:3]GB, B,B, B,G |
[V:4][G,,2G,2] >G,2 G,G, |
[V:1]d'/c'/c'/b/ b/a/a/g/ g/f/g/_e/ |
[V:2]_ee2 =e/f/ fc |
[V:3]FF2 F2 F- |
[V:4]A,2 >A,2 A,A, |
[V:1]dc BA Bf/_e/ |
[V:2]d2 z3 C |
[V:3]FF2 F2 F- |
[V:4]B,C D_E DA,, |
[V:1]dc BA Bg/f/ |
[V:2]D2 z3 G- |
[V:3]F_E DC B,D |
[V:4]B,,C, D,_E, D,=B, |
[V:1]_ed c=B cd |
[V:2]GF _ED EF |
[V:3]_EF G_A GF |
[V:4]CD _EF ED |
[V:1]_e=e fg _a=a |
[V:2]Gc2 e ff |
[V:3]_EG FC2 C |
[V:4]CB, A,G, F,_E, |
[V:1]b/a/b/d'/ b/a/b/f/ b/a/b/d'/ |
[V:2]f2 d2 B2- |
[V:3]B,2 F2 D2 |
[V:4]D,4 G,2 |
[V:1]c'/=b/c'/_e'/ c'/d'/_b/c'/ a/b/c'/_e/ |
[V:2]B2 AB cF |
[V:3]G2 F2 _E/D/E/C/ |
[V:4]_E,2 F,2 F,,2 |
[V:1]d2 f2 b2- |
[V:2]BF d2 D2 |
[V:3]D2 z4 |
[V:4]B,/A,/B,/D/ B,/A,/B,/F,/ B,/A,/B,/D/ |
[V:1]b2 ag f_e |
[V:2]_E2- E/F/D/E/ C/D/E/C/ |
[V:3]z2 z2 F2- |
[V:4]C/=B,/C/_E/ C/D/_B,/C/ A,/B,/C/A,/ |
[V:1]d/^c/d/f/ d/c/d/f/ =c/=B/c/f/ |
[V:2]D2 zD FC |
[V:3]F>D F2 F2 |
[V:4]B,2 B,,2 _A,,2 |
[V:1]=B/c/d/_e/ f/e/d/c/ B/_A/G/F/ |
[V:2]D4 F3/=B/ |
[V:3]F4 D3/=B,/ |
[V:4]G,,6 |
[V:1]_E2 z2 E2 |
[V:2]c/=B/c/_e/ c/B/c/G/ c/B/c/e/ |
[V:3]G,2 _E2 C2- |
[V:4]C,2 z2 _A,2 |
[V:1]_A2 G2 F2 |
[V:2]d/c/d/f/ d/_e/c/d/ =B/c/d/F/ |
[V:3]C2 =B,C DF/D/ |
[V:4]F,2 G,2 G,,2 |
[V:1][_E2G,2] z4 |
[V:2]_E2 _e2 c2- |
[V:3]C/=B,/C/_E/ C/B,/C/G,/ C/B,/C/E/ |
[V:4]C,2 z2 _A,,2 |
[V:1]z2 z2 d2 |
[V:2]c2 =B_A GF |
[V:3]D/_E/F/E/ D/E/C/D/ =B,/C/D/B,/ |
[V:4]F,,2 G,,2 G,,2 |
[V:1]_e/d/e/g/ e/d/e/g/ d/^c/d/g/ |
[V:2]_E2 G2 G2 |
[V:3]G,2 C2 D2 |
[V:4]C,/=B,,/C,/C,,/ C,/B,,/C,/C,,/ _B,,/A,,/B,,/B,,/ |
[V:1]^c/d/e/f/ g/f/e/d/ c/B/A/G/ |
[V:2]G6 |
[V:3]E6 |
[V:4]A,,6 |
[V:1]Ff2 a2 d' |
[V:2]FA2 d2 [Fd] |
[V:3]A,A,2 A,2 F |
[V:4]D,D,, D,D,, D,D,, |
[V:1]d'/^c'/c'/b/ b/a/a/g/ g/f/f/e/ |
[V:2][^c6E6] |
[V:3]G6 |
[V:4]D,6 |
[V:1]d/e/f/g/ aa2 ^g/=b/ |
[V:2][Fd]A2 A2 ^G/=B/ |
[V:3]FF2 F2 E |
[V:4]D,D2 D2 D- |
[V:1]a^g/=b/ ag/b/ ad |
[V:2]A^G/=B/ AG/B/ AD |
[V:3]FE FE FD |
[V:4]DD2 D2 D |
[V:1]ee2 ^g/a/ ea |
[V:2]EE2 ^G/A/ EA |
[V:3]^CD CC2 C- |
[V:4]A,^G, A,A,2 A,- |
[V:1]ee2 a g/f/g/e/ |
[V:2]EE2 A G/F/G/E/ |
[V:3]CD ^CC2 C |
[V:4]A,^G, A,A,2 A, |
[V:1]d/e/f/g/ aa2 ^g/=b/ |
[V:2]D/E/F/G/ AA2 ^G/=B/ |
[V:3]FF2 F2 E |
[V:4]DD2 D2 D- |
[V:1]a^g/=b/ ag/b/ ad |
[V:2]A^G/=B/ AG/B/ AD |
[V:3]FE FE FD |
[V:4]DD2 D2 D |
[V:1]ee2 ^g/a/ ea |
[V:2]EE2 ^G/A/ EA |
[V:3]^CD CC2 C- |
[V:4]A,^G, A,A,2 A,- |
[V:1]ee2 a g/f/g/e/ |
[V:2]EE2 A G/F/G/E/ |
[V:3]CD ^CC2 C |
[V:4]A,^G, A,A,2 A, |
[V:1]ff/e/ dd/^c/ dd/e/ |
[V:2]FA AA AA |
[V:3]DF FF FF |
[V:4]DD DD DD |
[V:1]ff/e/ dd/^c/ dd/e/ |
[V:2]FA AA AA |
[V:3]DF FF FF |
[V:4]DD DD DD |
[V:1]ff/e/ dd/^c/ dd/e/ |
[V:2]AA AA AA |
[V:3]FF FF FF |
[V:4]DD DD DD |
[V:1]ff/e/ ff/e/ f_a/g/ |
[V:2]_AA AA AA |
[V:3]DD DD DD |
[V:4]=B,B, B,B, B,B, |
[V:1]ff/e/ ff/e/ f_a/g/ |
[V:2]_AA AA AA |
[V:3]DD DD DD |
[V:4]=B,B, B,B, B,B, |
[V:1]ff/e/ ff/e/ f_a/f/ |
[V:2]_AA AA AA |
[V:3]FF FF FF |
[V:4]CC CC CC |
[V:1]_g/f/g/f/ g/f/g/f/ g/b/_a/g/ |
[V:2][_A_A,][AA,] [AA,][AA,] [AA,][AA,] |
[V:3]_EE EE EE |
[V:4]C,C, C,C, C,C, |
[V:1]f_a/_g/ fa/g/ ff/=g/ |
[V:2]_AA2 A2 A |
[V:3]FF FF FF |
[V:4]_D,D, D,D, D,D, |
[V:1]aa2 a2 f/a/ |
[V:2]AA2 A2 F/A/ |
[V:3]FF FF FF |
[V:4]_D,D, D,D, D,D, |
[V:1]bb2 b/a/ b=b |
[V:2]BB2 B,/A,/ B,=B, |
[V:3]F,F, F,F, F,F, |
[V:4]_D,,D,, D,,D,, D,,D,, |
[V:1]c'c'2 c'2 c'- |
[V:2]C/=B,/D/C/ E/D/F/E/ G/F/A/G/ |
[V:3]E,z C/=B,/D/C/ E/D/F/E/ |
[V:4]C,,2 z4 |
[V:1]c'c'2 c'2 c' |
[V:2]B/c/A/B/ G/A/F/G/ E/F/D/E/ |
[V:3]G/A/F/G/ E/F/D/E/ Cz |
[V:4]C,D, E,F, G,/A,/F,/G,/ |
[V:1]c/=B/d/c/ e/d/f/e/ g/f/a/g/ |
[V:2]C2 z4 |
[V:3]EF GA B/c/A/B/ |
[V:4]E,z B,A, G,F, |
[V:1]b/a/g/a/ g/f/e/f/ e/d/c/B/ |
[V:2][c2b2E2] z3 G |
[V:3]G2 z3 C |
[V:4]E,2 z3 E, |
[V:1]AG FE FG |
[V:2]AE FC FB, |
[V:3]CB, A,G, CC |
[V:4]F,G, A,B, A,E, |
[V:1]AF Bz2 d/c/ |
[V:2]A,C B,z2 A |
[V:3]CA, FD/C/ B,D |
[V:4]F,_E, D,z2 ^F, |
[V:1]BA G^F GA |
[V:2]B^F GD GC |
[V:3]DC B,A, DD |
[V:4]G,A, B,C B,^F, |
[V:1]BG cz2 g/f/ |
[V:2]B,D Cz2 D |
[V:3]DB, Gz2 =B, |
[V:4]G,F, E,E,,/D,,/ C,,z |
[V:1]ed c=B cB |
[V:2]EF G_A GA |
[V:3]CD EF EF |
[V:4]z6 |
[V:1]c^c2 <d2 =c/B/ |
[V:2]GA2 <B2 A/G/ |
[V:3]E2 z2 G,2 |
[V:4]z3 C,/D,/ E,E,, |
[V:1]Aa/g/ f2 fe/d/ |
[V:2]F2 >C2 DE |
[V:3]A,2 zA, B,B, |
[V:4]F,,F,/G,/ A,F,, F,,F,, |
[V:1]d2 ca/g/ fe/d/ |
[V:2]FE FC DE |
[V:3]B,2 A,A, B,B, |
[V:4]F,,F,/G,/ A,F,, F,,F,, |
[V:1]d2 ca/g/ f/e/d/c/ |
[V:2]FE FC AA |
[V:3]B,2 A,F FF |
[V:4]F,,F,/G,/ A,F,, F,,F,, |
[V:1]c=B _Bz Az |
[V:2]Dz Ez Fz |
[V:3]G2 zG zF |
[V:4]G,,2 zC, zD, |
[V:1]Gz Bz Ez |
[V:2]Dz B,z G,z |
[V:3]zG zD zB, |
[V:4]zB,, zG,, zC, |
[V:1][F2A,2] >F2 GA |
[V:2]A,/B,/A,/B,/ A,F E_E |
[V:3]A,2 zA, B,C |
[V:4]F,,/E,,/F,,/E,,/ F,,F,, F,,F,, |
[V:1]B3 d/c/ B/A/G/F/ |
[V:2]D6 |
[V:3]B,6 |
[V:4]F,,/E,,/F,,/E,,/ F,,F,, F,,F,, |
[V:1][E3G,3] g/e/ g/e/g/e/ |
[V:2][EB,][B,2E2] [B,2E2] [B,E] |
[V:3]_DD2 D2 D |
[V:4]F,,z F,,z F,,z |
[V:1]c'>a fF GA |
[V:2][A,F][F2A,2] F E_E |
[V:3]CC2 A, B,C |
[V:4]F,,2 >F,,2 F,,F,, |
[V:1]B3 d/c/ B/A/G/F/ |
[V:2]D6 |
[V:3]B,6 |
[V:4]F,,/E,,/F,,/E,,/ F,,F,, F,,F,, |
[V:1][E3G,3] g/e/ g/e/g/e/ |
[V:2][EB,][E2B,2] [B,2E2] [B,E] |
[V:3]_DD2 D2 D |
[V:4]F,,z F,,z F,,z |
[V:1]c'>a fg/e/ g/e/g/e/ |
[V:2][FA,][A,2F2] c cc |
[V:3]C2 zB BB |
[V:4]F,,2 z4 |
[V:1]c'>a fa/A/ a/A/a/A/ |
[V:2]c2 z[gA] [gA][gA] |
[V:3]A2 zE EE |
[V:4]z2 >^C2 CC |
[V:1]a>f d^f ff |
[V:2][A2f2] z_e/c/ e/c/e/c/ |
[V:3]F2 zc/A/ c/A/c/A/ |
[V:4]D2 z4 |
[V:1]g>b d'e ee |
[V:2]d2 z_d/B/ d/B/d/B/ |
[V:3]B2 zB/G/ B/G/B/G/ |
[V:4]z6 |
[V:1]f>a c'c'/a/ fa/f/ |
[V:2]c2 z2 c2 |
[V:3]A2 z2 F2 |
[V:4]z2 z2 A,,2 |
[V:1]df/d/ Bd/B/ GF |
[V:2]d2 z2 D2 |
[V:3]F2 z2 =B,2 |
[V:4]B,,2 z2 =B,,2 |
[V:1]F2 E2 c3/c/ |
[V:2]G,2 z2 G2 |
[V:3]C2 z2 E2 |
[V:4]C,C C,C, C,C, |
[V:1]c2 =B2 f2- |
[V:2]F4 =B2 |
[V:3]D4 d2 |
[V:4]C,C C,C, C,C, |
[V:1]f2 e2 g2- |
[V:2]d2 c2 d2 |
[V:3]=B2 c2 _B2 |
[V:4]C,C C,C, C,C, |
[V:1]g2 f2 b2- |
[V:2]c4 d2 |
[V:3]A4 F2 |
[V:4]C,C C,C, C,C, |
[V:1]b2 a2 d'2- |
[V:2]e2 f2 _a2 |
[V:3]G2 A2 F2 |
[V:4]C,C C,C, C,C, |
[V:1]d'2 c'2 =b2- |
[V:2]g4 f2- |
[V:3]E4 _A2- |
[V:4]C,C C,C, C,C, |
[V:1]b2 c'=b/c'/ d'd'/b/ |
[V:2]f2 ed/e/ ff/d/ |
[V:3]A2 GF/G/ _AA/F/ |
[V:4]C,,C, C,,C, C,,C, |
[V:1]c'c'/=b/ c'b/c'/ d'd'/b/ |
[V:2]ee2 d/e/ ff/d/ |
[V:3]GG2 F/G/ _AA/F/ |
[V:4]C,,C, C,,C, C,,C, |
[V:1]c'c'/=b/ c'd'/c'/ _bc'/b/ |
[V:2]ee2 z2 G |
[V:3]GG2 z2 c- |
[V:4]C,,C, C,,z2 E, |
[V:1]ag fe fc'/b/ |
[V:2]AB cc cG |
[V:3]cB AG FE |
[V:4]F,G, A,B, A,z |
[V:1]ag fe ff'/e'/ |
[V:2]AB cc cc |
[V:3]FG AB AF |
[V:4]z4 zA,, |
[V:1]d'd'/c'/ bb/a/ gg/f/ |
[V:2]dz dz dz |
[V:3]Fz Fz Gz |
[V:4]B,,z B,z B,z |
[V:1]e2 z4 |
[V:2]c2 z4 |
[V:3]G2 z4 |
[V:4]B,2 z4 |
[V:1]f/e/f/a/ f/e/f/c/ f/e/f/a/ |
[V:2]c2 A2 F2- |
[V:3]F2 C2 A,2 |
[V:4]A,,4 D,2 |
[V:1]g/^f/g/b/ g/a/=f/g/ e/f/g/e/ |
[V:2]F2 EF G2 |
[V:3]D2 C2 B,2 |
[V:4]B,,2 C,2 C,,2 |
[V:1]f2 z2 f2- |
[V:2]A/B/A/F/ A/B/A/f/ A/B/A/c/ |
[V:3]A,2 z4 |
[V:4]F,,/E,,/F,,/A,,/ F,,/E,,/F,,/C,,/ F,,/E,,/F,,/A,,/ |
[V:1]f2 e2 g2- |
[V:2]B2 z4 |
[V:3]B,/A,/B,/D/ B,/C/A,/B,/ G,/A,/B,/G,/ |
[V:4]G,,/^F,,/G,,/B,,/ G,,/A,,/=F,,/G,,/ E,,/F,,/G,,/E,,/ |
[V:1]g2 f2 a2- |
[V:2]c/d/c/A/ c/d/B/c/ A/B/c/A/ |
[V:3]C2 z4 |
[V:4]A,,/G,,/A,,/C,/ A,,/B,,/G,,/A,,/ F,,/G,,/A,,/F,,/ |
[V:1]a2 g2 b2- |
[V:2]d2 z2 d3/d/ |
[V:3]D/C/D/B,/ D/_E/C/D/ B,/C/A,/B,/ |
[V:4]B,,/A,,/B,,/D,/ B,,/C,/A,,/B,,/ G,,/A,,/F,,/G,,/ |
[V:1]b/a/g/f/ e/d/c/B/ A/f/c/A/ |
[V:2]cz Gz Az |
[V:3]G,z Cz Cz |
[V:4]E,,z E,z F,z |
[V:1]G/d/B/G/ F/c/A/F/ E/B/G/E/ |
[V:2]Bz Az Gz |
[V:3]Dz Cz Cz |
[V:4]B,,z C,z C,z |
[V:1]F/E/D/C/ =B,2 z2 |
[V:2]F2 z4 |
[V:3]=B,2 z4 |
[V:4]D,2 z4 |
[V:1]b/g/e/c/ B2 zc/B/ |
[V:2]c2 z3 E |
[V:3]G2 z4 |
[V:4]E,2 z4 |
[V:1]AG FG Ac/B/ |
[V:2]F2 z3 E |
[V:3]zC/B,/ A,2 z2 |
[V:4]z3 C,/B,,/ A,,z |
[V:1]AG FG Af/e/ |
[V:2]F2 z3 c |
[V:3]zC/B,/ A,2 zF |
[V:4]z3 C,/B,,/ A,,A, |
[V:1]db/a/ gd'/c'/ bg' |
[V:2]d2 z4 |
[V:3]F2 z4 |
[V:4]B,2 z4 |
[V:1]f'2 e'2 zg'/f'/ |
[V:2]G4 zz |
[V:3]B4 z2 |
[V:4]C4 zz |
[V:1]e'/f'/g'/a'/ b'2 za'/g'/ |
[V:2]c2 z4 |
[V:3]B2 z4 |
[V:4]z3 G,,/F,,/ E,,z |
[V:1]f'/g'/a'/b'/ c''2 zb'/a'/ |
[V:2]c2 z4 |
[V:3]A2 z4 |
[V:4]z3 A,,/G,,/ ^F,,z |
[V:1]g'/a'/b'/c''/ d'2 zB,/A,/ |
[V:2]d2 z3 B,/A,/ |
[V:3]B2 z3 B,/A,/ |
[V:4]z3 B,,/A,,/ G,,B,,/A,,/ |
[V:1]G,/A,/B,/C/ D/^F/G/F/ G/A/B/c/ |
[V:2]G,/A,/B,/C/ D/^F/G/F/ G/A/B/c/ |
[V:3]G,/A,/B,/C/ D/^F/G/F/ G/A/B/c/ |
[V:4]G,,/A,,/B,,/C,/ D,/^F,/G,/F,/ G,/A,/B,/C/ |
[V:1]dz Bz ez |
[V:2]dz Bz Bz |
[V:3]dz Gz Gz |
[V:4]Dz G,z C,z |
[V:1]fc2 [A2c2] c/A/ |
[V:2][F6A6] |
[V:3][C6F6] |
[V:4]F,F,, F,F,, F,F,, |
[V:1]BB/A/ GG/F/ Ec |
[V:2][BG][B2G2] [G2B2] [BG] |
[V:3][CE][E2C2] [E2C2] [EC] |
[V:4]F,F,2 F,2 F, |
[V:1]cf2 a2 c' |
[V:2][A6F6] |
[V:3][F6C6] |
[V:4]F,F,, F,F,, F,F,, |
[V:1]c'/b/b/a/ a/g/g/f/ f/e/g/e/ |
[V:2][BG][B2G2] [G2B2] [BG] |
[V:3][EC][E2C2] [E2C2] [EC] |
[V:4]F,F,2 F,2 F, |
[V:1]fa2 c'2 f'/c'/ |
[V:2][A6F6] |
[V:3][C6F6] |
[V:4]F,F,, F,F,, F,F,, |
[V:1]bb/a/ gg/f/ eg |
[V:2][BG][B2G2] [G2B2] [BG] |
[V:3][EC][C2E2] [E2C2] [EC] |
[V:4]F,F,2 F,2 F, |
[V:1]f/g/a/b/ c'c'2 =b/d'/ |
[V:2][AF]A/B/ cc2 =B/d/ |
[V:3][C2F2] zA2 ^G |
[V:4]F,,F, F,F, F,F, |
[V:1]c'=b/d'/ c'b/d'/ c'f' |
[V:2]c=B/d/ cB/d/ cf |
[V:3]A^G AG Ac |
[V:4]F,F, F,F, F,F, |
[V:1]gg2 ^f/a/ gf/a/ |
[V:2]dd2 _e de |
[V:3]BB2 c Bc |
[V:4]B,2 z4 |
[V:1]g/^f/a/g/ b/a/c'/b/ d'B |
[V:2]d2 z3 G |
[V:3]B2 z4 |
[V:4]z6 |
[V:1]A/c'/a/f/ cA BE |
[V:2]F2 zF GB |
[V:3]C2 z2 C2 |
[V:4]C2 z2 C,2 |
[V:1]F/E/F/A/ c/=B/d/c/ _B/A/G/F/ |
[V:2]A2 z4 |
[V:3]C2 z4 |
[V:4]F,2 z4 |
[V:1]E/G/c/e/ g/^f/a/g/ =f/e/d/c/ |
[V:2]G2 z4 |
[V:3]C2 z4 |
[V:4]B,,2 z4 |
[V:1]f/c/f/a/ c'/=b/d'/c'/ _b/a/g/f/ |
[V:2]c2 z4 |
[V:3]F,2 z4 |
[V:4]A,,2 z4 |
[V:1]e/d/d'/b/ ac'/a/ bg/e/ |
[V:2]zb/d/ cA/c/ BB/G/ |
[V:3]B,z Fz Ez |
[V:4]B,,z C,z C,z |
[V:1]fg/b/ ae/g/ fg/b/ |
[V:2]Ae/g/ fG/B/ Ae/g/ |
[V:3]zB/E/ FG/E/ FB/E/ |
[V:4]F,C, F,,C, F,C, |
[V:1]ae/g/ fg/b/ ae/g/ |
[V:2]fG/B/ Ae/g/ fG/B/ |
[V:3]FG/E/ FB/E/ FG/E/ |
[V:4]F,C, F,,C, F,C, |
[V:1]f2 zg/b/ ae/g/ |
[V:2]A2 zE/G/ AB/E/ |
[V:3]F2 zC FC |
[V:4]F,2 z4 |
[V:1]f2 zg/b/ ae/g/ |
[V:2]F2 zE/G/ AB/E/ |
[V:3]F2 zC FC |
[V:4]z6 |
[V:1]f2 z2 GB |
[V:2]F2 z2 B,G, |
[V:3]F2 z2 E,E |
[V:4]z2 z2 C,C,, |
[V:1]A2 z2 EG |
[V:2]A,2 z2 B,E |
[V:3]F2 z2 G,B, |
[V:4]F,,2 z2 C,C,, |
[V:1]F2 ze fg |
[V:2]F2 zG AB |
[V:3]A,2 zB, CC |
[V:4]F,,2 zC,/B,,/ A,,G,, |
[V:1][acF]z [cA,F]z [ACF]z |
[V:2]cz [cA,F]z [AFC]z |
[V:3][A,C,]z [A,C,]z [A,C,]z |
[V:4]F,,z F,,z F,,z |
[V:1][F2A,2] z4 |]
[V:2][F2A,2] z4 |]
[V:3][C,2A,2] z4 |]
[V:4]F,,2 z4 |]

